assets/images/icon_java.svg

<?xml version="1.0" encoding="UTF-8"?>
<!DOCTYPE svg PUBLIC "-//W3C//DTD SVG 1.1//EN" "http://www.w3.org/Graphics/SVG/1.1/DTD/svg11.dtd">
<!-- Creator: CorelDRAW 2019 (64 Bit) -->
<svg xmlns="http://www.w3.org/2000/svg" xml:space="preserve" width="3.331mm" height="4.5165mm" version="1.1" style="shape-rendering:geometricPrecision; text-rendering:geometricPrecision; image-rendering:optimizeQuality; fill-rule:evenodd; clip-rule:evenodd"
viewBox="0 0 0.8 1.08"
 xmlns:xlink="http://www.w3.org/1999/xlink">
 <defs>
  <style type="text/css">
   <![CDATA[
    .fil0 {fill:#5382A1}
    .fil1 {fill:#E76F00}
   ]]>
  </style>
 </defs>
 <g id="Camada_x0020_1">
  <metadata id="CorelCorpID_0Corel-Layer"/>
  <g id="_1488160850576">
   <g>
    <path class="fil0" d="M0.26 0.83c0,0 -0.04,0.02 0.03,0.03 0.09,0.01 0.13,0.01 0.22,-0.01 0,0 0.02,0.02 0.06,0.03 -0.21,0.09 -0.48,-0.01 -0.31,-0.05z"/>
    <path class="fil0" d="M0.23 0.72c0,0 -0.05,0.03 0.02,0.04 0.09,0.01 0.16,0.01 0.29,-0.01 0,0 0.02,0.02 0.04,0.03 -0.26,0.07 -0.54,0.01 -0.36,-0.05z"/>
    <path class="fil1" d="M0.45 0.52c0.05,0.06 -0.01,0.11 -0.01,0.11 0,0 0.13,-0.07 0.07,-0.15 -0.06,-0.08 -0.1,-0.12 0.14,-0.26 0,0 -0.37,0.09 -0.19,0.3z"/>
    <path class="fil0" d="M0.73 0.92c0,0 0.03,0.03 -0.03,0.04 -0.12,0.04 -0.51,0.05 -0.61,0 -0.04,-0.02 0.03,-0.04 0.06,-0.04 0.02,-0.01 0.04,-0 0.04,-0 -0.04,-0.03 -0.28,0.06 -0.12,0.08 0.43,0.07 0.79,-0.03 0.67,-0.08z"/>
    <path class="fil0" d="M0.28 0.59c0,0 -0.2,0.05 -0.07,0.06 0.05,0.01 0.16,0.01 0.26,-0 0.08,-0.01 0.16,-0.02 0.16,-0.02 0,0 -0.03,0.01 -0.05,0.03 -0.2,0.05 -0.58,0.03 -0.47,-0.03 0.09,-0.05 0.17,-0.04 0.17,-0.04z"/>
    <path class="fil0" d="M0.63 0.79c0.2,-0.11 0.11,-0.21 0.04,-0.19 -0.02,0 -0.02,0.01 -0.02,0.01 0,0 0.01,-0.01 0.02,-0.01 0.13,-0.05 0.23,0.13 -0.04,0.21 0,0 0,-0 0,-0.01z"/>
    <path class="fil1" d="M0.51 0c0,0 0.11,0.11 -0.11,0.28 -0.18,0.14 -0.04,0.22 -0,0.31 -0.1,-0.09 -0.18,-0.17 -0.13,-0.25 0.07,-0.11 0.28,-0.16 0.23,-0.34z"/>
    <path class="fil0" d="M0.3 1.08c0.19,0.01 0.49,-0.01 0.5,-0.1 0,0 -0.01,0.03 -0.16,0.06 -0.17,0.03 -0.37,0.03 -0.49,0.01 0,0 0.02,0.02 0.15,0.03z"/>
   </g>
  </g>
 </g>
</svg>

<svg xmlns="http://www.w3.org/2000/svg" xml:space="preserve" width="12.59" height="17.07" style="shape-rendering:geometricPrecision;text-rendering:geometricPrecision;image-rendering:optimizeQuality;fill-rule:evenodd;clip-rule:evenodd" viewBox="0 0 0.8 1.08">
    <g id="Camada_x0020_1">
        <g id="_1488160850576">
            <path style="fill:#5382a1;" d="M.26.83S.22.85.29.86C.38.87.42.87.51.85c0 0 .02.02.06.03C.36.97.09.87.26.83zM.23.72S.18.75.25.76C.34.77.41.77.54.75c0 0 .02.02.04.03C.32.85.04.79.22.73z" />
            <path style="fill:#e76f00;" d="M.45.52C.5.58.44.63.44.63S.57.56.51.48C.45.4.41.36.65.22c0 0-.37.09-.19.3z" />
            <path style="fill:#5382a1;" d="M.73.92S.76.95.7.96c-.12.04-.51.05-.61 0C.05.94.12.92.15.92c.02-.01.04 0 .04 0C.15.89-.09.98.07 1 .5 1.07.86.97.74.92zM.28.59S.08.64.21.65c.05.01.16.01.26 0L.63.63S.6.64.58.66C.38.71 0 .69.11.63.2.58.28.59.28.59zM.63.79C.83.68.74.58.67.6.65.6.65.61.65.61S.66.6.67.6C.8.55.9.73.63.81V.8z" />
            <path style="fill:#e76f00;" d="M.51 0S.62.11.4.28C.22.42.36.5.4.59.3.5.22.42.27.34.34.23.55.18.5 0z" />
            <path style="fill:#5382a1;" d="M.3 1.08c.19.01.49-.01.5-.1 0 0-.01.03-.16.06-.17.03-.37.03-.49.01 0 0 .02.02.15.03z" />
        </g>
    </g>
</svg>
